assets/img/common/dropdown-arrow.svg

<svg fill="none" height="6" viewBox="0 0 10 6" width="10" xmlns="http://www.w3.org/2000/svg"><path clip-rule="evenodd" d="m.162718.175736c.216958-.2343147.568717-.2343147.785675 0l4.051607 4.375734 4.05161-4.375734c.21696-.2343147.56871-.2343147.78567 0 .21692.234315.21692.614214 0 .848524l-4.44444 4.8c-.21696.23432-.56872.23432-.78568 0l-4.444442-4.8c-.2169575-.23431-.2169575-.614209 0-.848524z" fill="#656565" fill-rule="evenodd"/></svg>

<svg width="10" height="6" viewBox="0 0 10 6" fill="none" xmlns="http://www.w3.org/2000/svg">
  <path fill-rule="evenodd" clip-rule="evenodd"
    d="M0.162718 0.175736C0.379676 -0.0585787 0.731435 -0.0585787 0.948393 0.175736L5 4.55147L9.05161 0.175736C9.26857 -0.0585787 9.62032 -0.0585787 9.83728 0.175736C10.0542 0.410051 10.0542 0.78995 9.83728 1.02426L5.39284 5.82426C5.17588 6.05858 4.82412 6.05858 4.60716 5.82426L0.162718 1.02426C-0.0542395 0.78995 -0.0542395 0.410051 0.162718 0.175736Z"
    fill="#656565" />
</svg>
